rospo-icon-theme-classic-common/48x48/mimetypes/text-x-maxima-out.svg

<svg height="48" width="48" xmlns="http://www.w3.org/2000/svg"><path d="m10 5c-1.108 0-2 .892-2 2v36c0 1.108.892 2 2 2h28c1.108 0 2-.892 2-2v-26l-12-12z" opacity=".2"/><path d="m10 4c-1.108 0-2 .892-2 2v36c0 1.108.892 2 2 2h28c1.108 0 2-.892 2-2v-26l-12-12z" fill="#404b8b"/><path d="m40 17-12-12v10c0 1.108.892 2 2 2z" opacity=".2"/><path d="m40 16-12-12v10c0 1.108.892 2 2 2z" fill="#6672ba"/><path d="m10 4c-1.108 0-2 .892-2 2v1c0-1.108.892-2 2-2h18v-1z" fill="#fff" opacity=".1"/><path d="m18.0003 24.00003v1.4l.0056.59997 2.994 5-2.9999 5v2h11v-3h-2v1h-7l3-5-3-5h6v1h2v-3h-9.9998z" opacity=".2"/><path d="m18.0003 23.00003v1.4l.0056.59997 2.994 5-2.9999 5v2h11v-3h-2v1h-7l3-5-3-5h6v1h2v-3h-9.9998z" fill="#f26265"/></svg>

<svg xmlns="http://www.w3.org/2000/svg" width="48" height="48" version="1.1">
 <path style="opacity:0.2" d="M 10,5 C 8.892,5 8,5.892 8,7 l 0,36 c 0,1.108 0.892,2 2,2 l 28,0 c 1.108,0 2,-0.892 2,-2 L 40,17 28,5 Z"/>
 <path style="fill:#404b8b" d="M 10,4 C 8.892,4 8,4.892 8,6 l 0,36 c 0,1.108 0.892,2 2,2 l 28,0 c 1.108,0 2,-0.892 2,-2 L 40,16 28,4 Z"/>
 <path style="opacity:0.2" d="M 40,17 28,5 28,15 c 0,1.108 0.892,2 2,2 z"/>
 <path style="fill:#6672ba" d="M 40,16 28,4 28,14 c 0,1.108 0.892,2 2,2 z"/>
 <path style="opacity:0.1;fill:#ffffff" d="M 10,4 C 8.892,4 8,4.892 8,6 L 8,7 C 8,5.892 8.892,5 10,5 L 28,5 28,4 10,4 Z"/>
 <path style="opacity:0.2" d="m 18.0003,24.00003 0,1.4 L 18.0059,26 20.9999,31 18,36 l 0,2 11,0 0,-3 -2,0 0,1 -7,0 3,-5 -3,-5 6,0 0,1 2,0 0,-3 -9.9998,0 z"/>
 <path style="fill:#f26265" d="m 18.0003,23.00003 0,1.4 L 18.0059,25 20.9999,30 18,35 l 0,2 11,0 0,-3 -2,0 0,1 -7,0 3,-5 -3,-5 6,0 0,1 2,0 0,-3 -9.9998,0 z"/>
</svg>
